svgs/gocube.svg

<svg xmlns="http://www.w3.org/2000/svg" viewBox="0 0 192 192"><path d="M50.445 144.709c-12.397-2.486-25.227-14.43-30.788-28.662-4.225-10.809-4.338-29.552-.242-39.8 4.078-10.201 12.915-20.644 21.621-25.549 6.017-3.39 9.378-4.202 17.738-4.282 9.019-.087 11.434.535 19.213 4.945 9.846 5.583 11.269 7.733 8.322 12.579-2.591 4.26-4.191 4.139-12.734-.966-9.821-5.868-19.535-5.702-29.532.507-23.307 14.474-22.43 51.746 1.549 65.836 4.623 2.716 7.438 3.217 15.45 2.751 8.272-.481 10.696-1.298 15.581-5.252 5.287-4.28 11.883-13.341 11.883-16.325 0-.672-1.969-1.441-4.375-1.708-3.994-.444-4.411-.992-4.792-6.299l-.418-5.813h23.41l-.867 7.288c-3.213 26.997-26.571 45.654-51.019 40.75Zm83.151-18.467c-15.266-11.411-14.745-10.54-15.281-25.574-.262-7.348-.092-15.125.378-17.282l.855-3.922 8.143 5.115c4.478 2.814 10.539 7.649 13.468 10.745l5.325 5.629-.387 15.28c-.463 18.262-.946 18.648-12.501 10.009Zm16.376 5.048c-1.406-1.618-1.05-29.843.415-32.997 1.375-2.959 21.729-18.674 24.187-18.674.913 0 1.42 6.281 1.42 17.587 0 20.07.722 18.569-13.82 28.744-9.36 6.55-10.659 7.118-12.202 5.34Zm-17.457-47.862c-5.746-3.874-10.083-7.722-9.638-8.551 1.608-2.996 21.509-15.409 24.705-15.409 4.105 0 24.665 13.723 24 16.019-.27.932-4.687 4.666-9.817 8.296-12.327 8.726-15.843 8.683-29.25-.355Z"/></svg>

<svg
    xmlns="http://www.w3.org/2000/svg"
    viewBox="0 0 192 192"
    id="vector">
    <g id="group">
        <path
            id="path_6"
            d="M 50.445 144.709 C 38.048 142.223 25.218 130.279 19.657 116.047 C 15.432 105.238 15.319 86.495 19.415 76.247 C 23.493 66.046 32.33 55.603 41.036 50.698 C 47.053 47.308 50.414 46.496 58.774 46.416 C 67.793 46.329 70.208 46.951 77.987 51.361 C 87.833 56.944 89.256 59.094 86.309 63.94 C 83.718 68.2 82.118 68.079 73.575 62.974 C 63.754 57.106 54.04 57.272 44.043 63.481 C 20.736 77.955 21.613 115.227 45.592 129.317 C 50.215 132.033 53.03 132.534 61.042 132.068 C 69.314 131.587 71.738 130.77 76.623 126.816 C 81.91 122.536 88.506 113.475 88.506 110.491 C 88.506 109.819 86.537 109.05 84.131 108.783 C 80.137 108.339 79.72 107.791 79.339 102.484 L 78.921 96.671 L 102.331 96.671 L 101.464 103.959 C 98.251 130.956 74.893 149.613 50.445 144.709 Z M 133.596 126.242 C 118.33 114.831 118.851 115.702 118.315 100.668 C 118.053 93.32 118.223 85.543 118.693 83.386 L 119.548 79.464 L 127.691 84.579 C 132.169 87.393 138.23 92.228 141.159 95.324 L 146.484 100.953 L 146.097 116.233 C 145.634 134.495 145.151 134.881 133.596 126.242 Z M 149.972 131.29 C 148.566 129.672 148.922 101.447 150.387 98.293 C 151.762 95.334 172.116 79.619 174.574 79.619 C 175.487 79.619 175.994 85.9 175.994 97.206 C 175.994 117.276 176.716 115.775 162.174 125.95 C 152.814 132.5 151.515 133.068 149.972 131.29 Z M 132.515 83.428 C 126.769 79.554 122.432 75.706 122.877 74.877 C 124.485 71.881 144.386 59.468 147.582 59.468 C 151.687 59.468 172.247 73.191 171.582 75.487 C 171.312 76.419 166.895 80.153 161.765 83.783 C 149.438 92.509 145.922 92.466 132.515 83.428 Z"
            fill="#000000"
            stroke-width="12"/>
    </g>
</svg>
